**kern	**kern	**dynam
*part1	*part1	*part1
*staff2	*staff1	*
*I"Piano	*	*
*clefF4	*clefG2	*
*k[b-e-a-]	*k[b-e-a-]	*
=1	=1	=1
4.AA-X	4.ccn 4.ee-X 4.aa-X	.
=	=	=
8A-L	8e-L 8a- 8cc	.
8D-X	8f 8a- 8dd-X	.
8E-J	8e-J 8g 8b-	.
=	=	=
8FL	8cL 8f 8a-	.
8BB-	8d-X 8f 8b-	.
8CJ	8B-J 8e- 8g	.
=	=	=
8D-XL	8A-L 8d-X 8f	.
8BB-	8B- 8d- 8g	.
8CJ	8GJ 8c 8en	.
=	=	=
4.FF	4.An 4.c 4.f	.
=	=	=
*^	*^	*
(4E-	[4.FF	(8cL	4An	p
.	.	8dn	.	.
8Dn	.	8B-J	8G	.
=	=	=	=	=
4.E-)	4.FF]	8cL	4.An	.
.	.	8f	.	.
.	.	8e-J)	.	.
*v	*v	*	*	*
*	*v	*v	*
=	=	=
*-	*-	*-
!!!system-decoration: {(s1,s2)}
